cssgg/font-spacing.svg

<svg
  width="24"
  height="24"
  viewBox="0 0 24 24"
  fill="none"
  xmlns="http://www.w3.org/2000/svg"
>
  <path d="M19 21H21V3H19L19 21Z" fill="currentColor" />
  <path d="M5 21H3V3H5L5 21Z" fill="currentColor" />
  <path
    fill-rule="evenodd"
    clip-rule="evenodd"
    d="M9.46416 16.0479L9.95281 14.9999H14.0473L14.5359 16.0478C14.7693 16.5484 15.3643 16.7649 15.8649 16.5315C16.3654 16.2981 16.582 15.7031 16.3485 15.2026L12.9676 7.95213C12.7888 7.56877 12.398 7.35199 11.9999 7.37637C11.6019 7.35214 11.2112 7.5689 11.0325 7.95216L7.65155 15.2026C7.41814 15.7032 7.6347 16.2981 8.13524 16.5315C8.63578 16.7649 9.23076 16.5484 9.46416 16.0479ZM12.0001 10.6096L10.8854 12.9999H13.1147L12.0001 10.6096Z"
    fill="currentColor"
  />
</svg>

<svg viewBox="0 0 24 24" xmlns="http://www.w3.org/2000/svg"><g><path d="M19 21h2V3h-2v18Z"/><path d="M5 21H3V3h2v18Z"/><path fill-rule="evenodd" d="M9.46 16.04l.48-1.05h4.09l.48 1.04c.23.5.82.71 1.32.48 .5-.24.71-.83.48-1.33l-3.39-7.26c-.18-.39-.57-.61-.97-.58 -.4-.03-.79.19-.97.57l-3.39 7.25c-.24.5-.02 1.09.48 1.32 .5.23 1.09.01 1.32-.49Zm2.53-5.44l-1.12 2.39h2.22l-1.12-2.4Z"/></g></svg>
